X:2653
L:1/16
M:2/2
K:Ddor
 DDD2 D2D2 DDD2 E2D2 | DDD2 F2D2 DDD2 G2D2 | DDD2 F2D2 DDD2 E2D2 | DDD2 (GFEF) G2C2 E2D2 :: 
 DDD2 GFEF G2D2 F2D2 | DDD2 E2C2 G2C2 E2D2 | DDD2 B2D2 A2D2 F2D2 | DDD2 B2D2G2C2 E2D2 :: 
 DDD2 B2D2 DDD2 F2D2 | DDD2 B2D2 DDD2 E2D2 | DDD2 B2D2 DDD2 d2D2 | DDD2 B2D2 DDD2 E2D2 :: 
 DDD2 (dcBc) d2D2 F2D2 | DDD2 (cBAB) c2C2 E2D2 | d2B2c2A2 B2G2 A2D2 | GFEF G2C2 E2D2 DDD2 :: 
 d2>B2 d2>A2 d2>B2 d2>D2 | d2>B2 d2>A2 d2>F2 d2>D2 | d2>B2 A2d2 F2d2 G2D2 | BdAd GdFd BdAd GdDd :: 
 FdGd FdEd FdGd EdDd | EdFd GdEd | EdFd GdEd EdFd GdDd | EdFd GdEd EdFd GdDd | 
 EdFd GdEd EdFd GdDd :|

